jsapp/svg-icons/report-template.svg

<?xml version="1.0" encoding="UTF-8"?>
<svg width="40px" height="40px" viewBox="0 0 40 40" version="1.1" xmlns="http://www.w3.org/2000/svg" xmlns:xlink="http://www.w3.org/1999/xlink">
    <!-- Generator: Sketch 50.2 (55047) - http://www.bohemiancoding.com/sketch -->
    <title>Icons/report-template</title>
    <desc>Created with Sketch.</desc>
    <defs>
        <path d="M21.895,18.5483983 C21.719,18.1963983 21.352,17.9743983 20.959,17.9963983 C20.565,18.0133983 20.218,18.2583983 20.072,18.6243983 L18.635,22.2163983 L17.708,21.2883983 C17.371,20.9513983 16.842,20.8993983 16.446,21.1633983 L14,22.7933983 L14,25.1973983 L16.873,23.2823983 L18.293,24.7023983 C18.532,24.9403983 18.873,25.0453983 19.202,24.9753983 C19.531,24.9073983 19.804,24.6793983 19.929,24.3673983 L21.102,21.4343983 L22.106,23.4433983 C22.234,23.6993983 22.467,23.8883983 22.744,23.9623983 C23.023,24.0363983 23.316,23.9863983 23.555,23.8273983 L26,22.1973983 L26,19.7933983 L23.388,21.5353983 L21.895,18.5483983 Z M13,29.001 L13,11 L23,11 L23,15 L27,15 L27.001,29.001 L13,29.001 Z M24.414,9 L13,9 C11.897,9 11,9.897 11,11 L11,29.001 C11,30.104 11.897,31.001 13,31.001 L27,31.001 C28.103,31.001 29,30.104 29,29.001 L29,13.586 L24.414,9 Z" id="path-1"></path>
    </defs>
    <g id="Icons/report-template" stroke="none" stroke-width="1" fill="none" fill-rule="evenodd">
        <mask id="mask-2" fill="white">
            <use xlink:href="#path-1"></use>
        </mask>
        <use id="Mask" fill="#000000" xlink:href="#path-1"></use>
    </g>
</svg>

<svg height="40" viewBox="0 0 40 40" width="40" xmlns="http://www.w3.org/2000/svg"><path d="m21.895 18.5483983c-.176-.352-.543-.574-.936-.552-.394.017-.741.262-.887.628l-1.437 3.592-.927-.928c-.337-.337-.866-.389-1.262-.125l-2.446 1.63v2.404l2.873-1.915 1.42 1.42c.239.238.58.343.909.273.329-.068.602-.296.727-.608l1.173-2.933 1.004 2.009c.128.256.361.445.638.519.279.074.572.024.811-.135l2.445-1.63v-2.404l-2.612 1.742zm-8.895 10.4526017v-18.001h10v4h4l.001 14.001zm11.414-20.001h-11.414c-1.103 0-2 .897-2 2v18.001c0 1.103.897 2 2 2h14c1.103 0 2-.897 2-2v-15.415z" fill-rule="evenodd"/></svg>
